battery-lock-open.svg

<svg fill="currentColor" viewBox="0 0 24 24"><path d="M19.8 16h-4.3v-2.5c0-.8.7-1.3 1.5-1.3s1.5.5 1.5 1.3v.5h1.3v-.5c0-1.4-1.4-2.5-2.8-2.5s-2.8 1.1-2.8 2.5V16c-.6 0-1.2.6-1.2 1.2v3.5c0 .7.6 1.3 1.2 1.3h5.5c.7 0 1.3-.6 1.3-1.2v-3.5c0-.7-.6-1.3-1.2-1.3m-8.53 6H5.33C4.6 22 4 21.4 4 20.67V5.33C4 4.6 4.6 4 5.33 4H7V2h6v2h1.67C15.4 4 16 4.6 16 5.33v3.78c-2.14.44-3.8 2.27-3.8 4.39v1.24c-.7.6-1.2 1.5-1.2 2.46v3.5c0 .23.03.45.07.67l.01.02c.04.21.11.41.19.61"/></svg>

<svg  viewBox="0 0 24 24" fill="currentColor"><path  d="M19.8 16H15.5V13.5C15.5 12.7 16.2 12.2 17 12.2S18.5 12.7 18.5 13.5V14H19.8V13.5C19.8 12.1 18.4 11 17 11S14.2 12.1 14.2 13.5V16C13.6 16 13 16.6 13 17.2V20.7C13 21.4 13.6 22 14.2 22H19.7C20.4 22 21 21.4 21 20.8V17.3C21 16.6 20.4 16 19.8 16M11.27 22H5.33C4.6 22 4 21.4 4 20.67V5.33C4 4.6 4.6 4 5.33 4H7V2H13V4H14.67C15.4 4 16 4.6 16 5.33V9.11C13.86 9.55 12.2 11.38 12.2 13.5V14.74C11.5 15.34 11 16.24 11 17.2V20.7C11 20.93 11.03 21.15 11.07 21.37L11.08 21.39C11.12 21.6 11.19 21.8 11.27 22Z"/></svg>
